build/img/sprites/logo_black.svg

<svg width="219" height="76" viewBox="0 0 219 76" fill="none" xmlns="http://www.w3.org/2000/svg">
<path fill-rule="evenodd" clip-rule="evenodd" d="M37.8485 20.3024L47.6702 28.4803C48.2333 28.949 48.8112 31.6528 48.0504 32.5861L33.6941 50.1961L30.3034 47.369L42.5356 32.9548C42.8989 32.3393 43.489 32.394 43.2171 31.3328L42.3905 30.6261L36.6538 25.7975C36.1209 25.4751 35.9635 25.0405 35.0185 25.5372L34.541 26.0405L22.5337 41.1256L19.1016 38.3359L33.6832 20.6124C34.2395 19.937 37.1267 19.702 37.8482 20.3026L37.8485 20.3024Z" fill="#4988D1"/>
<path fill-rule="evenodd" clip-rule="evenodd" d="M31.8355 59.5313L22.0138 51.3533C21.4507 50.8842 20.8727 48.181 21.6335 47.2477L35.9895 29.6371L39.3803 32.4644L27.1478 46.8792C26.7844 47.4941 26.1947 47.4399 26.4666 48.501L27.293 49.2072L33.0295 54.0365C33.5625 54.3589 33.7203 54.793 34.6654 54.2971L35.1426 53.7937L47.15 38.7083L50.5821 41.4977L36.0005 59.2212C35.4442 59.8971 32.5566 60.1319 31.8356 59.5313H31.8355Z" fill="#78213A"/>
<path d="M119.356 30.6089H113.441C112.945 34.549 110.809 36.6698 107.222 36.6698C102.834 36.6698 100.049 33.1093 100.049 27.5402C100.049 23.0318 102.071 18.3725 107.299 18.3725C110.504 18.3725 112.716 20.1153 113.327 23.0697H119.165C118.707 17.5012 113.937 13.4097 107.413 13.4097C99.0948 13.4097 94.0586 19.6607 94.0586 27.5022C94.0586 36.0257 99.2855 41.6705 107.184 41.6705C114.624 41.6705 118.745 37.2 119.356 30.6087L119.356 30.6089ZM151.635 30.9499C151.635 24.7747 148.697 20.911 144.004 20.911C141.715 20.911 140.226 21.858 139.655 22.9182H139.54V14.0538H134.198V22.9182H134.084C133.511 21.858 132.023 20.911 129.734 20.911C125.041 20.911 122.103 24.7747 122.103 30.9499C122.103 36.4048 124.125 41.5572 130.001 41.5572C131.642 41.5572 133.32 40.6857 134.084 39.7386H134.198V47.9592H139.54V39.7386H139.655C140.417 40.6859 142.096 41.5572 143.737 41.5572C149.613 41.5572 151.635 36.4048 151.635 30.9499H151.635ZM146.293 31.0635C146.293 34.2837 145.492 37.4275 142.478 37.4275C140.875 37.4275 139.731 36.5183 139.54 35.5332V27.1235C140.036 25.5701 141.486 25.0398 142.63 25.0398C145.187 25.0398 146.293 27.2749 146.293 31.0635ZM134.198 35.5334C134.008 36.5184 132.863 37.4277 131.26 37.4277C128.246 37.4277 127.444 34.2839 127.444 31.0636C127.444 27.2751 128.551 25.0399 131.108 25.0399C132.252 25.0399 133.702 25.5702 134.198 27.1236V35.5334ZM173.574 34.9652H168.385C167.584 36.9351 166.363 37.8064 164.379 37.8064C161.479 37.8064 159.838 35.988 159.762 32.6167H173.879V32.0863C173.879 25.2293 170.102 20.911 164.15 20.911C158.427 20.911 154.268 25.3049 154.268 31.3666C154.268 37.5033 158.274 41.5949 164.34 41.5949C168.805 41.5949 172.353 39.2081 173.574 34.965L173.574 34.9652ZM168.385 29.2073H159.762C160.067 26.4795 161.746 24.8126 164.15 24.8126C166.859 24.8126 168.156 26.8205 168.385 29.2073ZM182.083 21.4793H176.97V47.9592H182.35V38.6022C183.8 40.6101 185.937 41.5194 188.417 41.5194C193.568 41.5194 196.963 37.5036 196.963 31.3668C196.963 25.0779 193.492 20.949 188.188 20.949C185.67 20.949 183.533 21.8961 182.083 23.9035V21.4794L182.083 21.4793ZM186.852 25.2673C189.752 25.2673 191.545 27.5403 191.545 31.3668C191.545 35.0789 189.79 37.3142 186.89 37.3142C183.914 37.3142 182.159 35.079 182.159 31.2911C182.159 27.5026 183.914 25.2673 186.852 25.2673ZM218.597 41.0268C217.872 39.3598 217.91 37.5034 217.91 35.7229V27.2751C217.91 21.8204 213.294 20.9111 209.326 20.9111C203.641 20.9111 200.512 23.1458 200.207 27.5025H205.281C205.662 25.2673 206.693 24.5095 209.173 24.5095C211.577 24.5095 212.721 25.343 212.721 27.1236C212.721 28.7147 211.424 29.0179 207.914 29.4725C204.022 29.965 199.329 30.5712 199.329 35.685C199.329 39.3598 202 41.595 206.349 41.595C208.715 41.595 211.043 40.7993 212.721 39.1325C212.798 40.0038 212.836 40.3069 213.103 41.0268H218.597ZM212.683 31.5182V33.7155C212.683 36.5185 210.699 38.0718 207.875 38.0718C206.006 38.0718 204.899 37.0868 204.899 35.4577C204.899 33.0715 206.998 32.8443 208.868 32.5411C210.241 32.3139 211.424 32.238 212.683 31.5182Z" fill="black"/>
<path d="M97.4054 70.6389L97.227 71.0081C96.8697 71.7466 96.3937 72.4556 95.6499 72.4556C94.9953 72.4556 94.6533 72.3076 94.4603 72.1897V73.3714C94.7573 73.5037 95.2931 73.6366 95.7691 73.6366C96.8101 73.6366 97.6879 73.0461 98.5802 71.2444L102.701 62.8705H101.198L98.164 69.2802L95.0698 62.8705H93.5381L97.4055 70.6389H97.4054ZM111.403 73.3858V62.8705H110.005V67.493C109.469 67.6114 108.383 67.8477 107.059 67.8477C104.932 67.8477 104.738 66.6069 104.738 65.7505V62.8705H103.34V65.8682C103.34 67.0353 103.816 69.0734 107.059 69.0734C108.071 69.0734 109.484 68.8219 110.005 68.7042V73.3858H111.403ZM121.071 62.8705H113.738V73.3858H121.146V72.1747H115.136V68.5415H120.685V67.3751H115.136V64.0811H121.071V62.8705ZM124.225 67.1236V64.0811H130.086V62.8705H122.827V73.3858H127.765C129.833 73.3858 131.023 72.2483 131.023 70.2697C131.023 68.2757 129.848 67.1238 127.765 67.1238H124.225V67.1236ZM129.625 70.2695C129.625 71.5544 128.851 72.1747 127.304 72.1747H124.225V68.3348H127.304C128.866 68.3348 129.625 68.9701 129.625 70.2695ZM141.406 62.8704H140.008V67.2565H134.415V62.8704H133.016V73.3857H134.415V68.4677H140.008V73.3857H141.406V62.8704ZM152.979 62.8704V73.3857H154.377V62.8704H152.979ZM151.655 70.2695C151.655 68.2756 150.48 67.1388 148.397 67.1388H145.155V62.8705H143.756V73.3858H148.397C150.465 73.3858 151.655 72.2483 151.655 70.2697V70.2695ZM150.242 70.2695C150.242 71.5544 149.469 72.1747 147.922 72.1747H145.154V68.3348H147.922C149.483 68.3348 150.242 68.9701 150.242 70.2695ZM163.139 60.1083H162.381C162.143 60.8172 161.667 61.2602 160.893 61.2602C160.134 61.2602 159.613 60.8174 159.405 60.1083H158.647C158.795 61.2898 159.673 62.1464 160.907 62.1464C162.202 62.1464 162.946 61.2898 163.139 60.1083ZM156.713 73.3857H158.468L163.674 64.4502H163.704V73.3857H165.102V62.8704H163.332L158.141 71.7757H158.111V62.8704H156.713V73.3857ZM179.576 75.9998H180.93V72.1745H179.769V62.8704H178.371V72.1745H172.897V62.8704H171.499V73.3857H179.576V75.9998ZM189.662 62.8704H182.328V73.3857H189.736V72.1745H183.726V68.5414H189.275V67.3749H183.726V64.081H189.662V62.8704ZM199.806 62.8704H198.408V67.2565H192.815V62.8704H191.417V73.3857H192.815V68.4677H198.408V73.3857H199.806V62.8704ZM209.505 62.8704H200.996V64.081H204.552V73.3857H205.95V64.081H209.505V62.8704ZM210.755 62.8704V73.3857H212.153V69.0734H215.024C217.091 69.0734 218.638 68.2756 218.638 65.8979C218.638 63.7118 217.136 62.8705 215.113 62.8705H210.755V62.8704ZM212.153 64.0665H214.652C216.035 64.0665 217.24 64.3027 217.24 65.9865C217.24 67.5369 216.199 67.9063 214.845 67.9063H212.153V64.0665Z" fill="black"/>
<path fill-rule="evenodd" clip-rule="evenodd" d="M44.3305 63.9519L44.4475 74.5323C57.0614 69.343 67.6318 59.5487 69.5317 44.7968C70.6887 28.7351 65.1177 19.7029 57.0075 13.271L58.1604 7.80877L51.0654 3.84424L47.3016 7.6644C45.2642 6.88294 43.1692 6.30324 41.0176 5.92777L39.2174 0.84375L31.0764 0.932564L29.8297 5.76306C27.5084 6.09236 25.2564 6.65119 23.0739 7.43995L19.2609 4.19089L12.2553 8.30918L13.497 12.7153C6.86086 17.8065 1.55365 26.6026 0.323524 34.7838L0 44.8904C0.06502 50.562 0.167344 59.4813 0.174437 59.6954L9.21668 59.5969C9.19488 59.1688 9.01361 40.266 9.00875 39.8247C8.95844 35.2665 10.0734 30.9845 12.3592 27.0286C14.6497 23.0629 17.7811 19.904 21.7454 17.5505C25.6814 15.2055 29.9724 14.0035 34.6044 13.9434C39.2358 13.9026 43.5529 15.0105 47.5395 17.269C51.5553 19.5357 54.7505 22.6279 57.1335 26.5402C59.5047 30.4534 60.7157 34.6966 60.7661 39.2602C60.9085 52.1306 53.6982 59.4804 44.3304 63.9516L44.3305 63.9519ZM40.3425 74.6627L40.2256 64.0949L35.7011 64.1443L35.818 74.7121L40.3425 74.6627ZM32.115 74.7525L31.9981 64.1848L27.4731 64.2341L27.59 74.802L32.115 74.7525ZM23.6825 74.8445L23.5656 64.2766L19.0414 64.326L19.1583 74.8938L23.6825 74.8445ZM15.6019 74.934L0.313804 75.1006L0.196899 64.5314L15.485 64.3647L15.6019 74.934Z" fill="#4988D1"/>
</svg>

<svg width="219" height="76" viewBox="0 0 219 76" fill="none" xmlns="http://www.w3.org/2000/svg"><path fill-rule="evenodd" clip-rule="evenodd" d="M37.849 20.302l9.821 8.178c.563.469 1.141 3.173.38 4.106l-14.356 17.61-3.39-2.827 12.232-14.414c.363-.616.953-.561.681-1.622l-.826-.707-5.737-4.829c-.533-.322-.69-.756-1.636-.26l-.477.504-12.007 15.085-3.432-2.79 14.581-17.724c.556-.675 3.444-.91 4.165-.31z" fill="#4988D1"/><path fill-rule="evenodd" clip-rule="evenodd" d="M31.835 59.531l-9.821-8.178c-.563-.469-1.141-3.172-.38-4.105l14.355-17.61 3.391 2.826L27.148 46.88c-.364.615-.953.56-.681 1.622l.826.706 5.736 4.83c.533.322.691.756 1.636.26l.478-.503L47.15 38.708l3.432 2.79L36.001 59.22c-.557.676-3.444.91-4.165.31z" fill="#78213A"/><path d="M119.356 30.609h-5.915c-.496 3.94-2.632 6.06-6.219 6.06-4.388 0-7.173-3.56-7.173-9.129 0-4.508 2.022-9.168 7.25-9.168 3.205 0 5.417 1.743 6.028 4.698h5.838c-.458-5.569-5.228-9.66-11.752-9.66-8.318 0-13.354 6.25-13.354 14.092 0 8.524 5.227 14.168 13.125 14.168 7.44 0 11.561-4.47 12.172-11.061zm32.279.34c0-6.174-2.938-10.038-7.631-10.038-2.289 0-3.778.947-4.349 2.007h-.115v-8.864h-5.342v8.864h-.114c-.573-1.06-2.061-2.007-4.35-2.007-4.693 0-7.631 3.864-7.631 10.039 0 5.455 2.022 10.607 7.898 10.607 1.641 0 3.319-.871 4.083-1.818h.114v8.22h5.342v-8.22h.115c.762.947 2.441 1.818 4.082 1.818 5.876 0 7.898-5.152 7.898-10.607zm-5.342.114c0 3.22-.801 6.365-3.815 6.365-1.603 0-2.747-.91-2.938-1.895v-8.41c.496-1.553 1.946-2.083 3.09-2.083 2.557 0 3.663 2.235 3.663 6.024zm-12.095 4.47c-.19.985-1.335 1.895-2.938 1.895-3.014 0-3.816-3.144-3.816-6.364 0-3.789 1.107-6.024 3.664-6.024 1.144 0 2.594.53 3.09 2.084v8.41zm39.376-.568h-5.189c-.801 1.97-2.022 2.841-4.006 2.841-2.9 0-4.541-1.818-4.617-5.19h14.117v-.53c0-6.857-3.777-11.175-9.729-11.175-5.723 0-9.882 4.394-9.882 10.456 0 6.136 4.006 10.228 10.072 10.228 4.465 0 8.013-2.387 9.234-6.63zm-5.189-5.758h-8.623c.305-2.727 1.984-4.394 4.388-4.394 2.709 0 4.006 2.008 4.235 4.394zm13.698-7.728h-5.113v26.48h5.38v-9.357c1.45 2.008 3.587 2.917 6.067 2.917 5.151 0 8.546-4.015 8.546-10.152 0-6.29-3.471-10.418-8.775-10.418-2.518 0-4.655.947-6.105 2.954V21.48zm4.769 3.788c2.9 0 4.693 2.273 4.693 6.1 0 3.712-1.755 5.947-4.655 5.947-2.976 0-4.731-2.235-4.731-6.023s1.755-6.024 4.693-6.024zm31.745 15.76c-.725-1.667-.687-3.524-.687-5.304v-8.448c0-5.455-4.616-6.364-8.584-6.364-5.685 0-8.814 2.235-9.119 6.591h5.074c.381-2.235 1.412-2.992 3.892-2.992 2.404 0 3.548.833 3.548 2.614 0 1.59-1.297 1.894-4.807 2.349-3.892.492-8.585 1.098-8.585 6.212 0 3.675 2.671 5.91 7.02 5.91 2.366 0 4.694-.796 6.372-2.462.077.87.115 1.174.382 1.894h5.494zm-5.914-9.509v2.197c0 2.803-1.984 4.357-4.808 4.357-1.869 0-2.976-.985-2.976-2.614 0-2.386 2.099-2.614 3.969-2.917 1.373-.227 2.556-.303 3.815-1.023zM97.405 70.639l-.178.37c-.357.738-.833 1.447-1.577 1.447-.655 0-.997-.148-1.19-.266v1.181a3.59 3.59 0 001.31.266c1.04 0 1.918-.59 2.81-2.393l4.121-8.373h-1.503l-3.034 6.41-3.094-6.41h-1.532l3.868 7.768zm13.998 2.747V62.87h-1.398v4.622c-.536.118-1.622.355-2.946.355-2.127 0-2.321-1.241-2.321-2.097v-2.88h-1.398v2.997c0 1.167.476 3.205 3.719 3.205 1.012 0 2.425-.251 2.946-.369v4.682h1.398zm9.668-10.515h-7.333v10.515h7.408v-1.211h-6.01v-3.633h5.549v-1.167h-5.549v-3.294h5.935v-1.21zm3.154 4.253V64.08h5.861v-1.21h-7.259v10.515h4.938c2.068 0 3.258-1.138 3.258-3.116 0-1.994-1.175-3.146-3.258-3.146h-3.54zm5.4 3.145c0 1.285-.774 1.906-2.321 1.906h-3.079v-3.84h3.079c1.562 0 2.321.635 2.321 1.934zm11.781-7.399h-1.398v4.387h-5.593V62.87h-1.399v10.516h1.399v-4.918h5.593v4.918h1.398V62.87zm11.573 0v10.516h1.398V62.87h-1.398zm-1.324 7.4c0-1.994-1.175-3.131-3.258-3.131h-3.242V62.87h-1.399v10.515h4.641c2.068 0 3.258-1.138 3.258-3.116zm-1.413 0c0 1.284-.773 1.905-2.32 1.905h-2.768v-3.84h2.768c1.561 0 2.32.635 2.32 1.934zm12.897-10.162h-.758c-.238.71-.714 1.152-1.488 1.152-.759 0-1.28-.443-1.488-1.152h-.758c.148 1.182 1.026 2.038 2.26 2.038 1.295 0 2.039-.856 2.232-2.038zm-6.426 13.278h1.755l5.206-8.936h.03v8.936h1.398V62.87h-1.77l-5.191 8.906h-.03V62.87h-1.398v10.516zM179.576 76h1.354v-3.826h-1.161V62.87h-1.398v9.304h-5.474V62.87h-1.398v10.516h8.077V76zm10.086-13.13h-7.334v10.516h7.408v-1.212h-6.01v-3.633h5.549v-1.166h-5.549V64.08h5.936v-1.21zm10.144 0h-1.398v4.387h-5.593V62.87h-1.398v10.516h1.398v-4.918h5.593v4.918h1.398V62.87zm9.699 0h-8.509v1.211h3.556v9.305h1.398V64.08h3.555v-1.21zm1.25 0v10.516h1.398v-4.313h2.871c2.067 0 3.614-.797 3.614-3.175 0-2.186-1.502-3.027-3.525-3.027h-4.358zm1.398 1.197h2.499c1.383 0 2.588.236 2.588 1.92 0 1.55-1.041 1.92-2.395 1.92h-2.692v-3.84z" fill="#000"/><path fill-rule="evenodd" clip-rule="evenodd" d="M44.33 63.952l.117 10.58c12.614-5.189 23.185-14.983 25.085-29.735 1.157-16.062-4.414-25.094-12.524-31.526l1.152-5.462-7.095-3.965-3.763 3.82a33.674 33.674 0 00-6.284-1.736l-1.8-5.084-8.142.089-1.246 4.83c-2.322.33-4.574.888-6.756 1.677L19.26 4.19l-7.006 4.12 1.242 4.405C6.861 17.806 1.554 26.603.324 34.784L0 44.89c.065 5.672.167 14.591.174 14.805l9.043-.098c-.022-.428-.203-19.331-.208-19.772-.05-4.559 1.064-8.84 3.35-12.796 2.29-3.966 5.422-7.125 9.386-9.479 3.936-2.345 8.227-3.546 12.86-3.607 4.63-.04 8.948 1.068 12.934 3.326 4.016 2.267 7.212 5.359 9.594 9.271 2.372 3.913 3.583 8.157 3.633 12.72.142 12.87-7.068 20.22-16.436 24.692zm-3.987 10.71l-.117-10.567-4.525.05.117 10.567 4.525-.05zm-8.228.09l-.117-10.567-4.525.05.117 10.567 4.525-.05zm-8.433.093l-.116-10.568-4.525.049.117 10.568 4.524-.05zm-8.08.089l-15.288.167-.117-10.57 15.288-.166.117 10.569z" fill="#4988D1"/></svg>
